Papirus-nordic/48x48/places/folder-nordic-apple.svg

<svg xmlns="http://www.w3.org/2000/svg" width="48" height="48" version="1"><rect width="40" height="26" x="4" y="17" rx="2" ry="2" opacity=".2"/><path d="M4 34c0 1.108.892 2 2 2h36c1.108 0 2-.892 2-2V12c0-1.108-.892-2-2-2H22V8c0-1.108-.892-2-2-2H6c-1.108 0-2 .892-2 2" fill="#6c9b9a"/><rect width="40" height="26" x="4" y="15" rx="2" ry="2" opacity=".2"/><rect width="36" height="16" x="6" y="13" rx="2" ry="2" fill="#e4e4e4"/><rect width="40" height="26" x="4" y="16" rx="2" ry="2" fill="#82abaa"/><path d="M6 6c-1.108 0-2 .892-2 2v1c0-1.108.892-2 2-2h14c1.108 0 2 .892 2 2V8c0-1.108-.892-2-2-2zm16 4v1h20c1.108 0 2 .892 2 2v-1c0-1.108-.892-2-2-2z" opacity=".1" fill="#fff"/><path d="M26.985 21c-.744.035-1.646.581-2.18 1.313-.479.65-.899 1.687-.787 2.682.831.076 1.68-.495 2.197-1.227h-.002c.518-.733.867-1.752.772-2.768zm.215 4.009c-1.068.079-2.042.73-2.594.73-.629 0-1.604-.708-2.635-.689-1.355.02-2.605.78-3.303 1.982-1.407 2.42-.36 6.005 1.012 7.967.671.961 1.489 2.001 2.52 2.001s1.395-.647 2.617-.647 1.556.647 2.635.647c1.079 0 1.777-.998 2.443-1.962.77-1.114 1.086-2.195 1.105-2.25-.025-.011-2.121-.805-2.142-3.197-.02-2.003 1.65-2.962 1.725-3.01-.938-1.359-2.4-1.547-2.92-1.568a2.56 2.56 0 0 0-.463-.004z" fill="#4e6766"/></svg>

<svg xmlns="http://www.w3.org/2000/svg" width="48" height="48" version="1">
 <rect style="opacity:0.2" width="40" height="26" x="4" y="17" rx="2" ry="2"/>
 <path style="fill:#6c9b9a" d="M 4,34 C 4,35.108 4.892,36 6,36 H 42 C 43.108,36 44,35.108 44,34 V 12 C 44,10.892 43.108,10 42,10 H 22 V 8 C 22,6.892 21.108,6 20,6 H 6 C 4.892,6 4,6.892 4,8"/>
 <rect style="opacity:0.2" width="40" height="26" x="4" y="15" rx="2" ry="2"/>
 <rect style="fill:#e4e4e4" width="36" height="16" x="6" y="13" rx="2" ry="2"/>
 <rect style="fill:#82abaa" width="40" height="26" x="4" y="16" rx="2" ry="2"/>
 <path style="opacity:0.1;fill:#ffffff" d="M 6,6 C 4.892,6 4,6.892 4,8 V 9 C 4,7.892 4.892,7 6,7 H 20 C 21.108,7 22,7.892 22,9 V 8 C 22,6.892 21.108,6 20,6 Z M 22,10 V 11 H 42 C 43.108,11 44,11.892 44,13 V 12 C 44,10.892 43.108,10 42,10 Z"/>
 <path style="fill:#4e6766" d="M 26.985,21 C 26.241,21.035 25.339,21.581 24.805,22.313 24.326,22.963 23.906,24 24.018,24.995 24.849,25.071 25.698,24.5 26.215,23.768 H 26.213 C 26.731,23.035 27.08,22.016 26.985,21 Z M 27.2,25.009 C 26.132,25.088 25.158,25.739 24.606,25.739 23.977,25.739 23.002,25.031 21.971,25.05 20.616,25.07 19.366,25.83 18.668,27.032 17.261,29.452 18.308,33.037 19.68,34.999 20.351,35.96 21.169,37 22.2,37 23.231,37 23.595,36.353 24.817,36.353 26.039,36.353 26.373,37 27.452,37 28.531,37 29.229,36.002 29.895,35.038 30.665,33.924 30.981,32.843 31,32.788 30.975,32.777 28.879,31.983 28.858,29.591 28.838,27.588 30.508,26.629 30.583,26.581 29.645,25.222 28.183,25.034 27.663,25.013 27.507,24.997 27.352,24.997 27.2,25.009 Z"/>
</svg>
